X:1
T:Burnham, 66.66.88
T:Burnham, 66.66.88
T:Thomas Clark (1775-1859)
T:Public Domain Courtesy of the Cyber Hymnal™
C:Thomas Clark (1775-1859)
Z:Public Domain
Z:Courtesy of the Cyber Hymnal™
%%score ( 1 2 ) ( 3 4 )
L:1/8
Q:1/4=105
M:2/4
K:D
V:1 treble 
V:2 treble 
V:3 bass 
V:4 bass 
V:1
 D | [DF]2 [FA]2 | (dB) ([Ge][Ec]) | [Fd]3 [EA] | (dB) ([DA][CG]) | [DF]2 [D^G]2 | [CA]4 | %7
 [Fd]2 [Ec][DB] | [Ge]3 [Fd] | [Ec]3 [GA] | ([Fd][GB]) ([FA][EG]) | [DF]2 [CE]2 | D4 | %13
 [CA]2 [CA][CA] | ([CA][DB]) ([Ec][CA]) | [Fd]2 [Fd]2 | [Fd]2 z2 | [GB]2 [GB][GB] | (Bc) [Ad] x | %19
 [Ae]2 [Ae]2 | [Ae]3 [GA] | [FA]3 [FA] | [Ad]3 [Ae] | [Af]3 [Ge] | [Fd]2 c2 | [Fd]3 |] %26
V:2
 D | x4 | D2 x2 | x4 | D2 x2 | x4 | x4 | x4 | x4 | x4 | x4 | x4 | D4 | x4 | x4 | x4 | x4 | x4 | %18
 G2 B x | x4 | x4 | x4 | x4 | x4 | x2 (3(E{D,}FG) | x3 |] %26
V:3
 [D,F,] | [D,A,]2 [D,D]2 | ([F,A,] G,) ([E,B,]A,) | [D,A,]3 [G,C] | D2 A,2 | [D,D]2 [E,B,]2 | %6
 [A,,A,]4 | z4 | z4 | z3 [C,A,] | ([D,A,][E,G,]) ([F,A,][G,B,]) | A,2 [A,,G,]2 | [D,F,]4 | z4 | %14
 z4 | [D,A,]2 ([D,A,][D,A,]) | ([D,F,][E,G,]) ([F,A,][D,F,]) | [G,D]2 [G,D]2 | (DE) D2 | %19
 [A,C]2 [A,C]2 | [A,C]3 [A,C] | [D,D]3 [D,D] | [F,D]3 [A,C] | D3 [G,B,] | A,2 [A,,A,]2 | [D,A,]3 |] %26
V:4
 x | x4 | x G, A, x | x4 | (F,G,) (F,E,) | x4 | x4 | x4 | x4 | x4 | x4 | A,2 x2 | x4 | x4 | x4 | %15
 x4 | x4 | x4 | G,2 (F,G,) | x4 | x4 | x4 | x4 | D3 x | A,2 x2 | x3 |] %26

